!!!COM: Palestrina, Giovanni Perluigi da
!!!OPR: Missa Sicut lilium inter spinas
!!!OMD: Credo
!!!OTL: First Section
**kern	**kern	**kern	**kern	**kern
*Ibass	*Itenor	*Itenor	*Icalto	*Icant
!Bassus	!Tenor 2	!Tenor 1	!Altus	!Cantus
*clefF4	*clefGv2	*clefGv2	*clefG2	*clefG2
*k[]	*k[]	*k[]	*k[]	*k[]
*A:aeo	*A:aeo	*A:aeo	*A:aeo	*A:aeo
*M4/2	*M4/2	*M4/2	*M4/2	*M4/2
=1	=1	=1	=1	=1
0r	0r	0r	0r	1ee
.	.	.	.	2ee
.	.	.	.	2ee
=2	=2	=2	=2	=2
0r	0r	0r	0r	2ff
.	.	.	.	2ff
.	.	.	.	1ee
=3	=3	=3	=3	=3
0r	0r	0r	1a	2ee
.	.	.	.	2ee
.	.	.	2a	2cc
.	.	.	2a	2cc
=4	=4	=4	=4	=4
0r	0r	0r	2b-	2dd
.	.	.	2b-	1ff
.	.	.	1a	.
.	.	.	.	4ee
.	.	.	.	4dd
=5	=5	=5	=5	=5
0r	0r	0r	2a	4cc
.	.	.	.	4dd
.	.	.	2a	4ee
.	.	.	.	4cc
.	.	.	2f	2.dd
.	.	.	2g	.
.	.	.	.	4ee
=6	=6	=6	=6	=6
0r	0r	1r	2a	2ff
.	.	.	1cc	1ee
.	.	1e	.	.
.	.	.	4b	4dd
.	.	.	4a	4cc
=7	=7	=7	=7	=7
0r	0r	2e	2g	4b
.	.	.	.	4a
.	.	2e	2.b	2g
.	.	2f	.	1a
.	.	.	4a	.
.	.	2f	[2a	.
=8	=8	=8	=8	=8
1r	0r	1e	2a]	1b
.	.	.	2g#	.
1A	.	2e	2a	2cc
.	.	2e	[2cc	2ee
=9	=9	=9	=9	=9
2A	0r	2c	4cc]	2ee
.	.	.	4b	.
2A	.	2c	4a	2ee
.	.	.	4g	.
2B-	.	2d	4f	2dd
.	.	.	4e	.
2B-	.	[2f	2d	2dd
=10	=10	=10	=10	=10
1A	0r	2f]	1a	1cc
.	.	4e	.	.
.	.	4d	.	.
2A	.	4c	2e	2a
.	.	4d	.	.
2A	.	4e	[2a	2cc
.	.	4c	.	.
=11	=11	=11	=11	=11
2F	1r	1d	2a]	2cc
2G	.	.	4g	2b
.	.	.	4f	.
2A	2r	1c	1e	1cc
[2c	2e	.	.	.
=12	=12	=12	=12	=12
4c]	2e	2.A	1a	1.cc
4B	.	.	.	.
4A	2e	.	.	.
4G	.	4B	.	.
1F	2f	[1c	2a	.
.	2f	.	[2cc	2a
=13	=13	=13	=13	=13
1A	1e	1c]	4cc]	2.cc
.	.	.	4b	.
.	.	.	1a	.
.	.	.	.	4dd
1E	1e	1B	.	1ee
.	.	.	2g#	.
=14	=14	=14	=14	=14
1A	2c#	1A	2a	2ee
.	2c#	.	2a	2ee
1D	2d	1r	2a	2ff
.	[2f	.	[2a	[2dd
=15	=15	=15	=15	=15
0r	4f]	0r	4a]	4dd]
.	4f	.	4a	4dd
.	2e	.	2g	2cc
.	2d	.	2a	2ff
.	2d	.	2b	2ff
=16	=16	=16	=16	=16
1r	0c	2r	1cc	1ee
.	.	1e	.	.
1A	.	.	1a	1cc
.	.	2f	.	.
=17	=17	=17	=17	=17
2B-	0r	1d	2f	2dd
1G	.	.	1g	1b-
.	.	2e	.	.
2F	.	[2f	2c	2a
=18	=18	=18	=18	=18
2.B-	1r	4f]	2.d	2f
.	.	4e	.	.
.	.	1d	.	2g
4B-	.	.	4d	.
1A	2r	.	2e	2a
.	2e	2c#	2a	2ee
=19	=19	=19	=19	=19
0r	2f	2d	2a	2dd
.	1d	2a	2f	1ff
.	.	2f	2a	.
.	2c	2g	[2cc	2ee
=20	=20	=20	=20	=20
0r	2.f	2a	2cc]	2cc
.	.	1a	4b	2dd
.	4f	.	4a	.
.	1e	.	2b	2.ee
.	.	2g#	2b	.
.	.	.	.	4dd
=21	=21	=21	=21	=21
2.A	2.e	1a	1a	0cc#
4A	4e	.	.	.
2A	2e	1r	2.a	.
2A	2e	.	.	.
.	.	.	4a	.
=22	=22	=22	=22	=22
2D	2f#	2.d	2a	0r
2D	2f#	.	2a	.
.	.	4d	.	.
1G	[1g	2d	2b	.
.	.	2d	2b	.
=23	=23	=23	=23	=23
1c	1g]	2e	1.cc	0r
.	.	2e	.	.
1F	2.a	1f	.	.
.	.	.	2a	.
.	4g	.	.	.
=24	=24	=24	=24	=24
0r	2f	2d	2b	1r
.	2g	2e	2.cc	.
.	2a	2.f	.	2.a
.	.	.	4b	.
.	[2d	.	4a	.
.	.	4e	4g	4a
=25	=25	=25	=25	=25
0r	2d]	2d	4f	2a
.	.	.	4g	.
.	2A	2c	1a	2a
.	1d	1B	.	2b
.	.	.	2g#	2b
=26	=26	=26	=26	=26
2r	0e	1A	2a	1cc
1A	.	.	1cc	.
.	.	1r	.	2a
2G#	.	.	2b	2b
=27	=27	=27	=27	=27
4A	[0c	0r	2.a	2.cc
4G	.	.	.	.
4F	.	.	.	.
4G	.	.	4g	4b
4A	.	.	2f	2a
4B	.	.	.	.
2c	.	.	2e	2g
=28	=28	=28	=28	=28
1F	1c]	2r	1a	1f
.	.	2.c	.	.
2r	2r	.	1g	1e
.	.	4c	.	.
[2C	[2e	2c	.	.
=29	=29	=29	=29	=29
4C]	4e]	1g	1c	2r
4C	4e	.	.	.
2C	2e	.	.	2.cc
1F	1f	[1a	2r	.
.	.	.	.	4cc
.	.	.	2c	2cc
=30	=30	=30	=30	=30
1D	1f	2a]	2d	1ff
.	.	4A	2d	.
.	.	4B	.	.
[1A	2r	4c	1e	2.ee
.	.	4d	.	.
.	[2c	[2e	.	.
.	.	.	.	4dd
=31	=31	=31	=31	=31
1A]	4c]	2e]	1.a	2.cc
.	4c	.	.	.
.	2c	2A	.	.
.	.	.	.	4b
1F	1f	2c	.	2a
.	.	2c	[2f	[2ff
=32	=32	=32	=32	=32
1B-	1.d	2d	2f]	2ff]
.	.	2f	2f	1dd
1G	.	4g	2.b-	.
.	.	4f	.	.
.	[2g	4e	.	[2ee
.	.	4d	4b-	.
=33	=33	=33	=33	=33
1A	2g]	2c#	0a	2ee]
.	2f	2d	.	1dd
1r	2e	2e	.	.
.	2e	2A	.	2cc#
=34	=34	=34	=34	=34
1r	1d	2r	0f#	1dd
.	.	1a	.	.
1d	1r	.	.	2r
.	.	2d	.	[2dd
=35	=35	=35	=35	=35
1d	0r	2f	2r	2dd]
.	.	2f	1a	2a
2A	.	1e	.	2cc
2c	.	.	2e	2cc
=36	=36	=36	=36	=36
4G	0r	1d	2g	1b
4A	.	.	.	.
4B	.	.	2g	.
4c	.	.	.	.
1d	.	2r	1f	[1a
.	.	[2d	.	.
=37	=37	=37	=37	=37
1A	0r	2d]	2e	1a]
.	.	2c#	1a	.
1r	.	2d	.	2r
.	.	2e	2g#	[2ee
=38	=38	=38	=38	=38
0r	0r	2f	2a	2ee]
.	.	1g	2b	2dd
.	.	.	2g	2ee
.	.	2f	2a	2ff
=39	=39	=39	=39	=39
0r	0r	4e	2b	4gg
.	.	4d	.	4ff
.	.	4c	2.cc	4ee
.	.	4B	.	4dd
.	.	4A	.	4ee
.	.	4B	4b	4dd
.	.	4c	[2a	2cc
.	.	4d	.	.
=40	=40	=40	=40	=40
1r	2r	1e	2a]	2b
.	2e	.	2g#	2b
1A	2e	1r	1a	1a
.	2A	.	.	.
=41	=41	=41	=41	=41
2A	2c	0r	2r	2r
2D	2.d	.	2f	2a
1F	.	.	2f	2a
.	4c	.	.	.
.	2A	.	2d	2a
=42	=42	=42	=42	=42
1E	1B	2r	1e	1g#
.	.	2e	.	.
1r	4A	2e	2c	1a
.	4B	.	.	.
.	4c	2A	2a	.
.	4d	.	.	.
=43	=43	=43	=43	=43
2r	0e	1c	2g	0r
2A	.	.	2a	.
2G	.	2B	2b	.
2A	.	2e	2cc	.
=44	=44	=44	=44	=44
2B	0r	2d	2b	2r
2c	.	2e	2.a	2ee
2.d	.	2.f	.	2dd
.	.	.	4g	.
.	.	.	4f	2dd
8c	.	4g	8e	.
8B	.	.	8d	.
=45	=45	=45	=45	=45
1A	2r	2.a	1e	2dd
.	1a	.	.	2cc#
.	.	4g	.	.
1D	.	2.f	2r	1dd
.	2d	.	[2a	.
.	.	4e	.	.
=46	=46	=46	=46	=46
0r	2.f	1d	2a]	2r
.	.	.	2d	1dd
.	4e	.	.	.
.	4d	1r	1f	.
.	4c	.	.	.
.	2d	.	.	2a
=47	=47	=47	=47	=47
0r	1A	0r	2e	1cc
.	.	.	2a	.
.	1r	.	2g	2b
.	.	.	2a	2ee
=48	=48	=48	=48	=48
0r	0r	2r	4b	2dd
.	.	.	8a	.
.	.	.	8b	.
.	.	1a	1cc	2ee
.	.	.	.	4ff
.	.	.	.	4ee
.	.	2d	[2b	4dd
.	.	.	.	4cc
=49	=49	=49	=49	=49
0r	1r	1f	4b]	4dd
.	.	.	4a	4cc
.	.	.	1a	4cc
.	.	.	.	8b
.	.	.	.	8a
.	2r	1e	.	1b
.	2e	.	2g#	.
=50	=50	=50	=50	=50
1A	2e	2.c	1a	2a
.	2A	.	.	2cc
.	.	4d	.	.
2A	2c	2e	1r	2cc
2D	[2d	[2f	.	[2b
=51	=51	=51	=51	=51
1F	4d]	2f]	0r	4b]
.	4c	.	.	4a
.	4B	2d	.	1a
.	4A	.	.	.
1E	1B	1e	.	.
.	.	.	.	2g#
=52	=52	=52	=52	=52
1r	1A	2c	2r	1a
.	.	1e	1a	.
2.A	1r	.	.	2.cc
.	.	2e	2a	.
4A	.	.	.	4cc
=53	=53	=53	=53	=53
2A	1r	2e	2a	2cc
2d	.	2f	2a	2dd
1c	2.e	1g	1cc	1ee
.	4e	.	.	.
=54	=54	=54	=54	=54
1A	2e	1a	2cc	2ee
.	2a	.	1cc	1ee
1r	1g	1r	.	.
.	.	.	2b	2dd
=55	=55	=55	=55	=55
0r	1e	0r	2g	2.gg
.	.	.	2b	.
.	.	.	.	4ff
.	1r	.	2cc	2ee
.	.	.	2b	2dd
=56	=56	=56	=56	=56
1r	0r	1r	2.a	4ff
.	.	.	.	4ee
.	.	.	.	2.ee
.	.	.	4g	.
1D	.	2r	1f	.
.	.	.	.	4dd
.	.	[2d	.	2dd
=57	=57	=57	=57	=57
1A	2r	2d]	1e	1ee
.	1e	2c	.	.
2.G	.	2B	1r	1r
.	2d	2A	.	.
4F	.	.	.	.
=58	=58	=58	=58	=58
2.E	2.g	2B	0r	0r
.	.	2.c	.	.
4F	4f	.	.	.
1G	2e	.	.	.
.	.	8B	.	.
.	.	8A	.	.
.	4d	2B	.	.
.	4e	.	.	.
=59	=59	=59	=59	=59
1A	4f	2.c	1r	0r
.	4e	.	.	.
.	1e	.	.	.
.	.	4B	.	.
1F	.	1A	2r	.
.	2d	.	2a	.
=60	=60	=60	=60	=60
1E	2.e	1B	2a	1r
.	.	.	2g#	.
.	4d	.	.	.
1r	4c	2A	4a	1ee
.	4B	.	4b	.
.	2A	2a	4cc	.
.	.	.	4a	.
=61	=61	=61	=61	=61
0r	1e	2a	1b	1ee
.	.	2g#	.	.
.	1r	2.a	2.cc	1ee
.	.	4g	4b	.
=62	=62	=62	=62	=62
0r	0r	4f	4a	1ff
.	.	4e	4g	.
.	.	2d	2.a	.
.	.	2c	.	2.ee
.	.	.	4g	.
.	.	2c	[2cc	.
.	.	.	.	8dd
.	.	.	.	8cc
=63	=63	=63	=63	=63
1r	1r	1G	2cc]	2dd
.	.	.	2b	2dd
1A	1e	2r	2cc	2.cc
.	.	2c	2a	.
.	.	.	.	4dd
=64	=64	=64	=64	=64
2A	2e	2A	2cc	0ee
2G#	2e	2B	2b	.
1A	1e	1c	1a	.
=65	=65	=65	=65	=65
2F	1f	2c	2a	0r
2D	.	1d	2a	.
2.E	1e	.	[1g	.
.	.	[2c	.	.
4F	.	.	.	.
=66	=66	=66	=66	=66
1G	1d	4c]	1g]	1r
.	.	8B	.	.
.	.	8A	.	.
.	.	2B	.	.
1C	2c	1e	2g	2r
.	2c	.	2e	2ee
=67	=67	=67	=67	=67
0r	2d	1r	2f	2dd
.	2e	.	2g	2b
.	2A	2r	1a	1cc
.	[2a	2c	.	.
=68	=68	=68	=68	=68
1r	2a]	2d	2f	1b
.	2g#	2e	2e	.
1F	2a	4A	2r	1a
.	.	4B	.	.
.	2A	4c	2a	.
.	.	4d	.	.
=69	=69	=69	=69	=69
2G	2B	1e	2g	0r
2A	2c#	.	2e	.
2D	1d	[1a	1f	.
[2d	.	.	.	.
=70	=70	=70	=70	=70
2d]	1A	1a]	1e	0r
2c#	.	.	.	.
1d	1a	1f#	1d	.
=71	=71	=71	=71	=71
0D	0f	1r	0a	0dd
.	.	1d	.	.
=72	=72	=72	=72	=72
1A	1e	1c#	1a	1ee
1D	1f#	1d	1a	1dd
=73	=73	=73	=73	=73
1G	1g	1B	1d	1dd
1G	1d	1B	1g	1dd
=74	=74	=74	=74	=74
0C	2e	1.c	4g	1cc
.	.	.	4f	.
.	1g	.	4e	.
.	.	.	4d	.
.	.	.	2c	1ee
.	[2a	2c	2cc	.
=75	=75	=75	=75	=75
0r	2a]	1.d	1a	1.ff
.	2f	.	.	.
.	2d	.	2b	.
.	[2e	2c	[2cc	2ee
=76	=76	=76	=76	=76
0r	2e]	1A	4cc]	1cc
.	.	.	4b	.
.	1f	.	1a	.
.	.	1B-	.	1dd
.	4e	.	2g	.
.	4d	.	.	.
=77	=77	=77	=77	=77
2r	2e	2A	2a	2cc#
1A	1e	1c#	1a	1ee
2A	2e	2c#	2a	2ee
=78	=78	=78	=78	=78
1A	1e	1c#	1a	1ee
1D	1f	1d	1a	1dd
=79	=79	=79	=79	=79
1G	1d	1B	1g	1dd
1E	1c#	1G	1g	1ee
=80	=80	=80	=80	=80
1D	1d	1A	1f#	1a
1D	1d	1A	1f#	1dd
=81	=81	=81	=81	=81
1G	1d	1B	1g	1dd
1C	1g	1c	1e	1ee
=82	=82	=82	=82	=82
0F	2.f	0A	1a	2.cc
.	4g	.	.	8dd
.	.	.	.	8ee
.	[1a	.	[1f	[1ff
=83	=83	=83	=83	=83
0D	2a]	0d	2f]	2ff]
.	2g	.	2g	2ee
.	1f	.	1a	1dd
=84	=84	=84	=84	=84
0A	0e	0c#	0a	0ee
*-	*-	*-	*-	*-
!!!CDT: 1525/^1526/-1594/2/2
!!!OCY: Italia
!!!AGN: Mass (Parody)
!!!AST: renaissance, vocal
!!!ASW: Motet 1569 (Palestrina)
!!!PWK: Masses, Book 5
!!!RNB: Cadence finals: D
!!!YOR: Le Opere Complete, v. 15, p. 130
!!!YOO: Rome, Italy: Fratelli Scalera
!!!END: 1992//
!!!EED: John Miller
!!!YEC: Copyright 2000, John Miller
!!!YEN: United States of America
!!!YEM: Rights to all derivative electronic formats reserved.
!!!YEM: Refer to licensing agreement for further details.
!!!YEM: This file must be accompanied by the licensing agreement.
!!!YEM: A copy of the licensing agreement may be found at http://www.music-cog.ohio-state.edu/HumdrumDatabases/Palestrina/license.txt
!!!EMD: converted to Humdrum by Bret Aarden
